X: 19400
T: Jackie Coleman's
R: reel
M: 4/4
K: Dmajor
AF~F2 AFEF|DF~F2 A2Bc|dA~A2 defg|afed BGdB|
AF~F2 AFEF|DFBF A2Bc|(3dcd ce defg|1 afeg fedB:|2 afeg fedc||
d2fd Adfd|B=cec gcec|d2fd Adfa|geag fedc|
d2fd Adfd|=c2ec gcec|defg ~a2af|1 geag fedc:|2 geag fedB||

